X:1179
T:Barley Raking - for a Jigg or Reel
M:6/8
L:1/8
K:G
A|D2F AsBAs|G2F E2F|D2 csB2As|B2cd2:|
e|d2ef2d|g2fe2f|!d2ef2d|dscBs A2A|d2ef2d|g2f esfes|d2AB2d|A2FD2:|


